documentation/public/assets/images/toggle-group-do-and-dont-06.svg

<svg width="118" height="40" viewBox="0 0 118 40" fill="none" xmlns="http://www.w3.org/2000/svg">
<path d="M4.125 0.5H78.625V39.5H4.125C2.192 39.5 0.625 37.933 0.625 36V4C0.625 2.067 2.192 0.5 4.125 0.5Z" fill="white"/>
<path d="M25.4446 26V14.3636H27.5526V24.233H32.6776V26H25.4446ZM38.2798 26.1705C37.4048 26.1705 36.6491 25.9886 36.0128 25.625C35.3802 25.2576 34.8935 24.7386 34.5526 24.0682C34.2116 23.3939 34.0412 22.6004 34.0412 21.6875C34.0412 20.7898 34.2116 20.0019 34.5526 19.3239C34.8973 18.642 35.3783 18.1117 35.9957 17.733C36.6132 17.3504 37.3385 17.1591 38.1719 17.1591C38.7098 17.1591 39.2173 17.2462 39.6946 17.4205C40.1757 17.5909 40.5999 17.8561 40.9673 18.2159C41.3385 18.5758 41.6302 19.0341 41.8423 19.5909C42.0545 20.1439 42.1605 20.803 42.1605 21.5682V22.1989H35.0071V20.8125H40.1889C40.1851 20.4186 40.0999 20.0682 39.9332 19.7614C39.7666 19.4508 39.5336 19.2064 39.2344 19.0284C38.9389 18.8504 38.5942 18.7614 38.2003 18.7614C37.7798 18.7614 37.4105 18.8636 37.0923 19.0682C36.7741 19.2689 36.526 19.5341 36.348 19.8636C36.1738 20.1894 36.0848 20.5473 36.081 20.9375V22.1477C36.081 22.6553 36.1738 23.0909 36.3594 23.4545C36.545 23.8144 36.8045 24.0909 37.1378 24.2841C37.4711 24.4735 37.8613 24.5682 38.3082 24.5682C38.6075 24.5682 38.8783 24.5265 39.1207 24.4432C39.3632 24.3561 39.5734 24.2292 39.7514 24.0625C39.9295 23.8958 40.0639 23.6894 40.1548 23.4432L42.0753 23.6591C41.9541 24.1667 41.723 24.6098 41.3821 24.9886C41.045 25.3636 40.6132 25.6553 40.0866 25.8636C39.5601 26.0682 38.9579 26.1705 38.2798 26.1705ZM48.321 17.2727V18.8636H43.1619V17.2727H48.321ZM44.4517 26V16.4489C44.4517 15.8617 44.5729 15.3731 44.8153 14.983C45.0616 14.5928 45.3911 14.3011 45.804 14.108C46.2169 13.9148 46.6752 13.8182 47.179 13.8182C47.535 13.8182 47.8513 13.8466 48.1278 13.9034C48.4044 13.9602 48.6089 14.0114 48.7415 14.0568L48.3324 15.6477C48.2453 15.6212 48.1354 15.5947 48.0028 15.5682C47.8703 15.5379 47.7225 15.5227 47.5597 15.5227C47.1771 15.5227 46.9063 15.6155 46.7472 15.8011C46.5919 15.983 46.5142 16.2443 46.5142 16.5852V26H44.4517ZM54.2898 17.2727V18.8636H49.2727V17.2727H54.2898ZM50.5114 15.1818H52.5682V23.375C52.5682 23.6515 52.6098 23.8636 52.6932 24.0114C52.7803 24.1553 52.8939 24.2538 53.0341 24.3068C53.1742 24.3598 53.3295 24.3864 53.5 24.3864C53.6288 24.3864 53.7462 24.3769 53.8523 24.358C53.9621 24.339 54.0455 24.322 54.1023 24.3068L54.4489 25.9148C54.339 25.9527 54.1818 25.9943 53.9773 26.0398C53.7765 26.0852 53.5303 26.1117 53.2386 26.1193C52.7235 26.1345 52.2595 26.0568 51.8466 25.8864C51.4337 25.7121 51.1061 25.4432 50.8636 25.0795C50.625 24.7159 50.5076 24.2614 50.5114 23.7159V15.1818Z" fill="#545454"/>
<path d="M4.125 0.5H78.625V39.5H4.125C2.192 39.5 0.625 37.933 0.625 36V4C0.625 2.067 2.192 0.5 4.125 0.5Z" stroke="#AFAFAF"/>
<path d="M78.375 0.5H113.875C115.808 0.5 117.375 2.067 117.375 4V36C117.375 37.933 115.808 39.5 113.875 39.5H78.375V0.5Z" fill="white"/>
<path fill-rule="evenodd" clip-rule="evenodd" d="M91.374 13.999C91.374 13.7229 91.5979 13.499 91.874 13.499H103.874C104.15 13.499 104.374 13.7229 104.374 13.999C104.374 14.2752 104.15 14.499 103.874 14.499H91.874C91.5979 14.499 91.374 14.2752 91.374 13.999ZM91.374 17.999C91.374 17.7229 91.5979 17.499 91.874 17.499H99.874C100.15 17.499 100.374 17.7229 100.374 17.999C100.374 18.2752 100.15 18.499 99.874 18.499H91.874C91.5979 18.499 91.374 18.2752 91.374 17.999ZM91.374 21.999C91.374 21.7229 91.5979 21.499 91.874 21.499H103.874C104.15 21.499 104.374 21.7229 104.374 21.999C104.374 22.2752 104.15 22.499 103.874 22.499H91.874C91.5979 22.499 91.374 22.2752 91.374 21.999ZM91.374 25.999C91.374 25.7229 91.5979 25.499 91.874 25.499H99.874C100.15 25.499 100.374 25.7229 100.374 25.999C100.374 26.2752 100.15 26.499 99.874 26.499H91.874C91.5979 26.499 91.374 26.2752 91.374 25.999Z" fill="#545454"/>
<path d="M78.375 0.5H113.875C115.808 0.5 117.375 2.067 117.375 4V36C117.375 37.933 115.808 39.5 113.875 39.5H78.375V0.5Z" stroke="#AFAFAF"/>
</svg>

<svg width="118" height="40" fill="none" xmlns="http://www.w3.org/2000/svg"><path d="M4.13.5h74.5v39H4.13A3.5 3.5 0 0 1 .63 36V4A3.5 3.5 0 0 1 4.13.5Z" fill="#fff"/><path d="M25.44 26V14.36h2.11v9.87h5.13V26h-7.24Zm12.84.17a4.5 4.5 0 0 1-2.27-.55 3.7 3.7 0 0 1-1.46-1.55 5.21 5.21 0 0 1-.5-2.38c0-.9.16-1.69.5-2.37a3.87 3.87 0 0 1 3.62-2.16c.54 0 1.05.09 1.52.26.49.17.91.44 1.28.8.37.36.66.81.87 1.37.21.55.32 1.21.32 1.98v.63h-7.15v-1.4h5.18c0-.4-.09-.74-.26-1.05a1.89 1.89 0 0 0-1.73-1 2 2 0 0 0-1.1.3 2.22 2.22 0 0 0-1.02 1.88v1.2c0 .52.1.95.28 1.31.19.36.44.64.78.83.33.2.72.29 1.17.29.3 0 .57-.04.81-.13.24-.08.45-.21.63-.38.18-.16.31-.37.4-.62l1.93.22a3 3 0 0 1-.7 1.33c-.34.37-.77.67-1.3.87-.52.2-1.12.31-1.8.31Zm10.04-8.9v1.6h-5.16v-1.6h5.16ZM44.45 26v-9.55c0-.59.12-1.08.37-1.47.24-.39.57-.68.98-.87.42-.2.88-.3 1.38-.3a4.75 4.75 0 0 1 1.56.25l-.4 1.59a3.56 3.56 0 0 0-.78-.13c-.38 0-.65.1-.81.28-.16.18-.24.44-.24.79V26h-2.06Zm9.84-8.73v1.6h-5.02v-1.6h5.02Zm-3.78-2.09h2.06v8.2c0 .27.04.48.12.63.09.15.2.24.34.3.14.05.3.08.47.08a2.02 2.02 0 0 0 .6-.08l.35 1.6a4.6 4.6 0 0 1-1.21.2c-.52.02-.98-.05-1.4-.22a2.17 2.17 0 0 1-.98-.81 2.4 2.4 0 0 1-.35-1.36v-8.54Z" fill="#545454"/><path d="M4.13.5h74.5v39H4.13A3.5 3.5 0 0 1 .63 36V4A3.5 3.5 0 0 1 4.13.5Z" stroke="#AFAFAF"/><path d="M78.38.5h35.5a3.5 3.5 0 0 1 3.5 3.5v32a3.5 3.5 0 0 1-3.5 3.5h-35.5V.5Z" fill="#fff"/><path fill-rule="evenodd" clip-rule="evenodd" d="M91.37 14c0-.28.23-.5.5-.5h12a.5.5 0 0 1 0 1h-12a.5.5 0 0 1-.5-.5Zm0 4c0-.28.23-.5.5-.5h8a.5.5 0 0 1 0 1h-8a.5.5 0 0 1-.5-.5Zm0 4c0-.28.23-.5.5-.5h12a.5.5 0 0 1 0 1h-12a.5.5 0 0 1-.5-.5Zm0 4c0-.28.23-.5.5-.5h8a.5.5 0 0 1 0 1h-8a.5.5 0 0 1-.5-.5Z" fill="#545454"/><path d="M78.38.5h35.5a3.5 3.5 0 0 1 3.5 3.5v32a3.5 3.5 0 0 1-3.5 3.5h-35.5V.5Z" stroke="#AFAFAF"/></svg>
